X:5326
T:Quadrille,A. JMT002
O:england
M:6/8
L:1/8
Q:100
S:John Moore,Tyneside,1841. (01b)
R:Quadrille
A:Northumbria
H:1841
K:D
A | f2 A f2 A | fgf efe | d2 c def | e3 a2 A |   f2 A f2 A |
fgf efe |dcB dcB | f3 f2 :||: A | ABc def | a2 g e2 d |
cde ABc | e2 d f2 g | ABc def | f2 e c2 d | cde ABc |  e3 d2 :|]


